X: 852
T: the Sweep's Hornpipe   #2
R: hornpipe
%S: s:4 b:25(6+6+6+7)
B: Francis O'Neill: "The Dance Music of Ireland" (1907) #852
Z: Frank Nordberg - http://www.musicaviva.com
F: http://www.musicaviva.com/abc/tunes/ireland/oneill-1001/0852/oneill-1001-0852-1.abc
M: 2/4
L: 1/16
K: D
"^A"[|]\
a>g \
| (3faf d>f A>dF>A | D>FA>d f2e>f |[1,3  g>be>g d>fA>F | G>BA>F E2 :|[2,4 g>fe>d c>AB>c | d2f2d2 :|
"^B"|: z2 \
| G>FG>A B>cd>e | f>gf>e d>cd>B |[1,3 A2f2 f>ef2 | G2e2 e>de2 :|[2,4 A>fe>d c>AB>c | d>fe>c d2 :|
"^C"|: a>g \
| (3fgf (3efe (3ded (3cdc | (3BcB (3ABA \
[1,3 G2b>a | (3gag (3fgf (3efe (3ded | (3cdc (3BcB A2 :|\
[2,4 (3GAG (3FGF | E>ge>d c>AB>c | d2f2d2 :|
